packages/icons/src/components/Logo/assets/dark/github-actions.svg

<svg width="20" height="20" viewBox="0 0 20 20" fill="none" xmlns="http://www.w3.org/2000/svg">
<path d="M2.91669 2.83823C2.91669 2.51031 3.27797 2.3109 3.55544 2.48569L5.68594 3.82778C5.94648 3.99191 5.9451 4.37219 5.68344 4.53444L3.55292 5.85548C3.27535 6.02756 2.91669 5.82794 2.91669 5.50136V2.83823Z" stroke="white" stroke-linecap="round" stroke-linejoin="round"/>
<path fill-rule="evenodd" clip-rule="evenodd" d="M4.16667 0.833333C2.32567 0.833333 0.833333 2.32567 0.833333 4.16667C0.833333 6.00767 2.32567 7.5 4.16667 7.5C6.00767 7.5 7.5 6.00767 7.5 4.16667C7.5 2.32567 6.00767 0.833333 4.16667 0.833333ZM0 4.16667C0 1.86543 1.86543 0 4.16667 0C6.46791 0 8.33333 1.86543 8.33333 4.16667C8.33333 6.46791 6.46791 8.33333 4.16667 8.33333C1.86543 8.33333 0 6.46791 0 4.16667Z" fill="white"/>
<path fill-rule="evenodd" clip-rule="evenodd" d="M9.58333 15C8.43274 15 7.5 15.9327 7.5 17.0833C7.5 18.2339 8.43274 19.1667 9.58333 19.1667C10.7339 19.1667 11.6667 18.2339 11.6667 17.0833C11.6667 15.9327 10.7339 15 9.58333 15ZM6.66667 17.0833C6.66667 15.4725 7.97251 14.1667 9.58333 14.1667C11.1942 14.1667 12.5 15.4725 12.5 17.0833C12.5 18.6942 11.1942 20 9.58333 20C7.97251 20 6.66667 18.6942 6.66667 17.0833Z" fill="white"/>
<path fill-rule="evenodd" clip-rule="evenodd" d="M3.75 7.5C3.98012 7.5 4.16667 7.68655 4.16667 7.91667V14.1667C4.16667 15.5457 5.30228 16.6667 6.66667 16.6667H7.08333C7.31345 16.6667 7.5 16.8532 7.5 17.0833C7.5 17.3135 7.31345 17.5 7.08333 17.5H6.66667C4.84539 17.5 3.33333 16.0093 3.33333 14.1667V7.91667C3.33333 7.68655 3.51988 7.5 3.75 7.5Z" fill="white"/>
<path fill-rule="evenodd" clip-rule="evenodd" d="M9.58333 8.33333C8.43274 8.33333 7.5 9.26608 7.5 10.4167C7.5 11.5673 8.43274 12.5 9.58333 12.5C10.7339 12.5 11.6667 11.5673 11.6667 10.4167C11.6667 9.26608 10.7339 8.33333 9.58333 8.33333ZM6.66667 10.4167C6.66667 8.80584 7.97251 7.5 9.58333 7.5C11.1942 7.5 12.5 8.80584 12.5 10.4167C12.5 12.0275 11.1942 13.3333 9.58333 13.3333C7.97251 13.3333 6.66667 12.0275 6.66667 10.4167Z" fill="white"/>
<path fill-rule="evenodd" clip-rule="evenodd" d="M10.7267 9.54178C10.8893 9.7046 10.8891 9.96842 10.7263 10.131L9.44747 11.4082C9.28493 11.5705 9.02166 11.5706 8.85894 11.4085L8.23781 10.7896C8.07481 10.6271 8.07434 10.3633 8.23676 10.2003C8.39919 10.0373 8.66301 10.0368 8.82602 10.1993L9.15271 10.5248L10.1374 9.54138C10.3003 9.37877 10.5641 9.37895 10.7267 9.54178Z" fill="white"/>
<path fill-rule="evenodd" clip-rule="evenodd" d="M17.0833 8.33333C15.9327 8.33333 15 9.26608 15 10.4167C15 11.5673 15.9327 12.5 17.0833 12.5C18.2339 12.5 19.1667 11.5673 19.1667 10.4167C19.1667 9.26608 18.2339 8.33333 17.0833 8.33333ZM14.1667 10.4167C14.1667 8.80584 15.4725 7.5 17.0833 7.5C18.6942 7.5 20 8.80584 20 10.4167C20 12.0275 18.6942 13.3333 17.0833 13.3333C15.4725 13.3333 14.1667 12.0275 14.1667 10.4167Z" fill="white"/>
<path fill-rule="evenodd" clip-rule="evenodd" d="M18.2267 9.54178C18.3893 9.7046 18.3891 9.96842 18.2263 10.131L16.9475 11.4082C16.7849 11.5705 16.5217 11.5706 16.3589 11.4085L15.7378 10.7896C15.5748 10.6271 15.5743 10.3633 15.7368 10.2003C15.8992 10.0373 16.163 10.0368 16.326 10.1993L16.6527 10.5248L17.6374 9.54138C17.8003 9.37877 18.0641 9.37895 18.2267 9.54178Z" fill="white"/>
<path d="M7.06208 10.8333C7.29221 10.8333 7.47875 10.6468 7.47875 10.4167C7.47875 10.1865 7.29221 10 7.06208 10V10.8333ZM3.33333 7.93133C3.33333 9.53404 4.63263 10.8333 6.23533 10.8333V10C5.09283 10 4.16667 9.07383 4.16667 7.93133H3.33333ZM6.23533 10.8333H7.06208V10H6.23533V10.8333Z" fill="white"/>
<path fill-rule="evenodd" clip-rule="evenodd" d="M11.6895 10.4167C11.6895 10.1865 11.876 10 12.1061 10H14.583C14.8132 10 15 10.1865 15 10.4167C15 10.6468 14.8132 10.8333 14.583 10.8333H12.1061C11.876 10.8333 11.6895 10.6468 11.6895 10.4167Z" fill="white"/>
<path fill-rule="evenodd" clip-rule="evenodd" d="M8.74998 16.6665C8.9799 16.6665 9.16665 16.8533 9.16665 17.0832C9.16665 17.3134 8.9799 17.4998 8.74998 17.4998C8.52006 17.4998 8.33331 17.3134 8.33331 17.0832C8.33331 16.8533 8.52006 16.6665 8.74998 16.6665Z" fill="white"/>
<path fill-rule="evenodd" clip-rule="evenodd" d="M10.4166 16.6665C10.6466 16.6665 10.8333 16.8533 10.8333 17.0832C10.8333 17.3134 10.6466 17.4998 10.4166 17.4998C10.1867 17.4998 9.99998 17.3134 9.99998 17.0832C9.99998 16.8533 10.1867 16.6665 10.4166 16.6665Z" fill="white"/>
<path fill-rule="evenodd" clip-rule="evenodd" d="M17.0833 14.9998C15.9327 14.9998 15 15.9326 15 17.0832C15 18.2338 15.9327 19.1665 17.0833 19.1665C18.2339 19.1665 19.1666 18.2338 19.1666 17.0832C19.1666 15.9326 18.2339 14.9998 17.0833 14.9998ZM14.1666 17.0832C14.1666 15.4723 15.4725 14.1665 17.0833 14.1665C18.6941 14.1665 20 15.4723 20 17.0832C20 18.694 18.6941 19.9998 17.0833 19.9998C15.4725 19.9998 14.1666 18.694 14.1666 17.0832Z" fill="white"/>
<path d="M14.1686 17.086L13.7467 17.0998L14.1686 17.086Z" fill="white"/>
<path fill-rule="evenodd" clip-rule="evenodd" d="M14.5851 17.0725C14.5926 17.3025 14.4122 17.495 14.1822 17.5025L13.7603 17.5162C13.5303 17.5237 13.3378 17.3434 13.3303 17.1134C13.3228 16.8834 13.5032 16.6908 13.7332 16.6834L14.1551 16.6696C14.3851 16.6621 14.5776 16.8425 14.5851 17.0725Z" fill="white"/>
</svg>

<svg xmlns="http://www.w3.org/2000/svg" width="20" height="20" fill="none" viewBox="0 0 20 20">
    <path stroke="#fff" stroke-linecap="round" stroke-linejoin="round" d="M2.917 2.838c0-.328.361-.527.638-.352l2.13 1.342a.416.416 0 0 1-.002.706l-2.13 1.321a.417.417 0 0 1-.636-.354z"/>
    <path fill="#fff" fill-rule="evenodd" d="M4.167.833a3.333 3.333 0 1 0 0 6.667 3.333 3.333 0 0 0 0-6.667M0 4.167a4.167 4.167 0 1 1 8.333 0 4.167 4.167 0 0 1-8.333 0M9.583 15a2.083 2.083 0 1 0 0 4.167 2.083 2.083 0 0 0 0-4.167m-2.916 2.083a2.917 2.917 0 1 1 5.833 0 2.917 2.917 0 0 1-5.833 0" clip-rule="evenodd"/>
    <path fill="#fff" fill-rule="evenodd" d="M3.75 7.5c.23 0 .417.187.417.417v6.25c0 1.379 1.135 2.5 2.5 2.5h.416a.417.417 0 1 1 0 .833h-.416a3.345 3.345 0 0 1-3.334-3.333v-6.25c0-.23.187-.417.417-.417m5.833.833a2.083 2.083 0 1 0 0 4.167 2.083 2.083 0 0 0 0-4.167m-2.916 2.084a2.917 2.917 0 1 1 5.833 0 2.917 2.917 0 0 1-5.833 0" clip-rule="evenodd"/>
    <path fill="#fff" fill-rule="evenodd" d="M10.727 9.542a.417.417 0 0 1 0 .589l-1.28 1.277a.417.417 0 0 1-.588 0l-.621-.618a.417.417 0 0 1 .588-.59l.327.325.984-.984a.417.417 0 0 1 .59 0m6.356-1.208a2.083 2.083 0 1 0 0 4.167 2.083 2.083 0 0 0 0-4.167m-2.916 2.084a2.917 2.917 0 1 1 5.833 0 2.917 2.917 0 0 1-5.833 0" clip-rule="evenodd"/>
    <path fill="#fff" fill-rule="evenodd" d="M18.227 9.542a.417.417 0 0 1 0 .589l-1.28 1.277a.417.417 0 0 1-.588 0l-.621-.618a.417.417 0 0 1 .588-.59l.327.325.984-.984a.417.417 0 0 1 .59 0" clip-rule="evenodd"/>
    <path fill="#fff" d="M7.062 10.833a.417.417 0 1 0 0-.833zM3.333 7.931c0 1.603 1.3 2.902 2.902 2.902V10a2.07 2.07 0 0 1-2.068-2.069zm2.902 2.902h.827V10h-.827z"/>
    <path fill="#fff" fill-rule="evenodd" d="M11.69 10.417c0-.23.186-.417.416-.417h2.477a.417.417 0 1 1 0 .833h-2.477a.417.417 0 0 1-.416-.416m-2.94 6.25a.417.417 0 1 1 0 .833.417.417 0 0 1 0-.834m1.667.001a.417.417 0 1 1 0 .833.417.417 0 0 1 0-.834M17.083 15a2.083 2.083 0 1 0 0 4.167 2.083 2.083 0 0 0 0-4.167m-2.916 2.083a2.917 2.917 0 1 1 5.833 0 2.917 2.917 0 0 1-5.833 0" clip-rule="evenodd"/>
    <path fill="#fff" d="m14.169 17.086-.422.014z"/>
    <path fill="#fff" fill-rule="evenodd" d="M14.585 17.073a.417.417 0 0 1-.403.43l-.422.013a.417.417 0 1 1-.027-.833l.422-.013a.417.417 0 0 1 .43.402" clip-rule="evenodd"/>
</svg>
